X:74
T:Miss Tashis Maggot THO4.074
M:2/4
L:1/8
Z:vmp. Peter Dunk 2010/11.from a transcription by Fynn Titford-Mock 2007
B:Thompson's Compleat Collection of 200 Favourite Country Dances Volume IV.
Q:1/2=70
K:D
d2 (f>a)|e2 (g>b)|(3bge (3afd|e2d2|g>be>g|f>ad>f|Tg2f2|e4:|
e2 ed|e>f g2|g>ba>g|f2e2|(3(bg)e (3(bg)e|(3(af)d (3(df)a|f2e2 d4:|
